koraia/koraia-member/icons/member-grade-free.svg

<svg width="20" height="20" viewBox="0 0 20 20" fill="none" xmlns="http://www.w3.org/2000/svg">
<g clip-path="url(#clip0_256_96)">
<path d="M4.31 11.9598C4.13 11.9598 3.98 11.8098 3.98 11.6298V8.3798C3.98 8.1998 4.13 8.0498 4.31 8.0498H5.94C6.12 8.0498 6.27 8.1998 6.27 8.3798C6.27 8.5598 6.12 8.7098 5.94 8.7098H4.64V11.6298C4.64 11.8098 4.49 11.9598 4.31 11.9598Z" fill="#BCCBDA"/>
<path d="M4.31 10.3299C4.13 10.3299 3.98 10.1799 3.98 9.99992C3.98 9.81992 4.13 9.66992 4.31 9.66992H5.12C5.3 9.66992 5.45 9.81992 5.45 9.99992C5.45 10.1799 5.3 10.3299 5.12 10.3299H4.31Z" fill="#BCCBDA"/>
<path d="M10 19.2797C4.88 19.2797 0.720001 15.1197 0.720001 9.99973C0.720001 4.87973 4.88 0.719727 10 0.719727C15.12 0.719727 19.28 4.87973 19.28 9.99973C19.28 15.1197 15.12 19.2797 10 19.2797ZM10 1.37973C5.25 1.37973 1.38 5.24973 1.38 9.99973C1.38 14.7497 5.25 18.6197 10 18.6197C14.75 18.6197 18.62 14.7497 18.62 9.99973C18.62 5.24973 14.75 1.37973 10 1.37973Z" fill="#BCCBDA"/>
<path d="M4.92 6.25992C4.84 6.25992 4.77 6.22992 4.71 6.18992C4.64 6.12992 4.6 6.05992 4.59 5.96992C4.59 5.87992 4.61 5.79992 4.66 5.72992C5.97 4.09992 7.91 3.16992 9.99 3.16992C12.07 3.16992 14.02 4.09992 15.32 5.72992C15.38 5.79992 15.4 5.88992 15.39 5.96992C15.39 6.05992 15.34 6.13992 15.27 6.18992C15.21 6.23992 15.14 6.25992 15.06 6.25992C14.96 6.25992 14.87 6.20992 14.8 6.13992C13.62 4.66992 11.86 3.81992 9.98 3.81992C8.1 3.81992 6.34 4.65992 5.16 6.13992C5.1 6.21992 5 6.25992 4.9 6.25992H4.92Z" fill="#BCCBDA"/>
<path d="M10 16.8396C8.11 16.8396 6.35 16.0796 5.04 14.6996C4.98 14.6396 4.95 14.5496 4.95 14.4596C4.95 14.3696 4.99 14.2896 5.05 14.2296C5.11 14.1696 5.19 14.1396 5.28 14.1396C5.37 14.1396 5.46 14.1796 5.52 14.2396C6.7 15.4896 8.29 16.1696 10 16.1696C11.71 16.1696 13.3 15.4796 14.48 14.2396C14.54 14.1696 14.63 14.1396 14.72 14.1396C14.81 14.1396 14.89 14.1696 14.95 14.2296C15.01 14.2896 15.05 14.3696 15.05 14.4596C15.05 14.5496 15.02 14.6296 14.96 14.6996C13.65 16.0796 11.89 16.8396 10 16.8396Z" fill="#BCCBDA"/>
<path d="M9.19 11.9598C9.1 11.9598 9.02 11.9298 8.96 11.8598L7.9 10.7998V11.6298C7.9 11.8098 7.75 11.9598 7.57 11.9598C7.39 11.9598 7.24 11.8098 7.24 11.6298V8.3798C7.24 8.1998 7.39 8.0498 7.57 8.0498H8.38C9.01 8.0498 9.52 8.5598 9.52 9.1898C9.52 9.7598 9.09 10.2498 8.52 10.3198L8.37 10.3398L9.42 11.3898C9.55 11.5198 9.55 11.7298 9.42 11.8598C9.36 11.9198 9.28 11.9598 9.19 11.9598ZM7.89 9.6698H8.37C8.64 9.6698 8.85 9.4498 8.85 9.1898C8.85 8.9298 8.63 8.7098 8.37 8.7098H7.89V9.6798V9.6698Z" fill="#BCCBDA"/>
<path d="M10.81 11.9598C10.63 11.9598 10.48 11.8098 10.48 11.6298V8.3798C10.48 8.1998 10.63 8.0498 10.81 8.0498H12.44C12.62 8.0498 12.77 8.1998 12.77 8.3798C12.77 8.5598 12.62 8.7098 12.44 8.7098H11.14V11.2998H12.44C12.62 11.2998 12.77 11.4498 12.77 11.6298C12.77 11.8098 12.62 11.9598 12.44 11.9598H10.81Z" fill="#BCCBDA"/>
<path d="M10.81 10.3299C10.63 10.3299 10.48 10.1799 10.48 9.99992C10.48 9.81992 10.63 9.66992 10.81 9.66992H11.62C11.8 9.66992 11.95 9.81992 11.95 9.99992C11.95 10.1799 11.8 10.3299 11.62 10.3299H10.81Z" fill="#BCCBDA"/>
<path d="M14.07 11.9598C13.89 11.9598 13.74 11.8098 13.74 11.6298V8.3798C13.74 8.1998 13.89 8.0498 14.07 8.0498H15.7C15.88 8.0498 16.03 8.1998 16.03 8.3798C16.03 8.5598 15.88 8.7098 15.7 8.7098H14.4V11.2998H15.7C15.88 11.2998 16.03 11.4498 16.03 11.6298C16.03 11.8098 15.88 11.9598 15.7 11.9598H14.07Z" fill="#BCCBDA"/>
<path d="M14.07 10.3299C13.89 10.3299 13.74 10.1799 13.74 9.99992C13.74 9.81992 13.89 9.66992 14.07 9.66992H14.88C15.06 9.66992 15.21 9.81992 15.21 9.99992C15.21 10.1799 15.06 10.3299 14.88 10.3299H14.07Z" fill="#BCCBDA"/>
</g>
<defs>
<clipPath id="clip0_256_96">
<rect width="20" height="20" fill="white"/>
</clipPath>
</defs>
</svg>

<?xml version="1.0" encoding="UTF-8"?>
<svg id="_레이어_1" data-name="레이어_1" xmlns="http://www.w3.org/2000/svg" version="1.1" viewBox="0 0 20 20">
  <!-- Generator: Adobe Illustrator 29.3.1, SVG Export Plug-In . SVG Version: 2.1.0 Build 151)  -->
  <defs>
    <style>
      .st0 {
        fill: #fff;
      }
    </style>
  </defs>
  <path class="st0" d="M4.31,11.96c-.18,0-.33-.15-.33-.33v-3.25c0-.18.15-.33.33-.33h1.63c.18,0,.33.15.33.33s-.15.33-.33.33h-1.3v2.92c0,.18-.15.33-.33.33Z"/>
  <path class="st0" d="M4.31,10.33c-.18,0-.33-.15-.33-.33s.15-.33.33-.33h.81c.18,0,.33.15.33.33s-.15.33-.33.33h-.81Z"/>
  <path class="st0" d="M10,19.28C4.88,19.28.72,15.12.72,10S4.88.72,10,.72s9.28,4.16,9.28,9.28-4.16,9.28-9.28,9.28ZM10,1.38C5.25,1.38,1.38,5.25,1.38,10s3.87,8.62,8.62,8.62,8.62-3.87,8.62-8.62S14.75,1.38,10,1.38Z"/>
  <path class="st0" d="M4.92,6.26c-.08,0-.15-.03-.21-.07-.07-.06-.11-.13-.12-.22,0-.09.02-.17.07-.24,1.31-1.63,3.25-2.56,5.33-2.56s4.03.93,5.33,2.56c.06.07.08.16.07.24,0,.09-.05.17-.12.22-.06.05-.13.07-.21.07-.1,0-.19-.05-.26-.12-1.18-1.47-2.94-2.32-4.82-2.32s-3.64.84-4.82,2.32c-.06.08-.16.12-.26.12Z"/>
  <path class="st0" d="M10,16.84c-1.89,0-3.65-.76-4.96-2.14-.06-.06-.09-.15-.09-.24,0-.09.04-.17.1-.23.06-.06.14-.09.23-.09.09,0,.18.04.24.1,1.18,1.25,2.77,1.93,4.48,1.93s3.3-.69,4.48-1.93c.06-.07.15-.1.24-.1.09,0,.17.03.23.09.06.06.1.14.1.23,0,.09-.03.17-.09.24-1.31,1.38-3.07,2.14-4.96,2.14Z"/>
  <path class="st0" d="M9.19,11.96c-.09,0-.17-.03-.23-.1l-1.06-1.06v.83c0,.18-.15.33-.33.33s-.33-.15-.33-.33v-3.25c0-.18.15-.33.33-.33h.81c.63,0,1.14.51,1.14,1.14,0,.57-.43,1.06-1,1.13l-.15.02,1.05,1.05c.13.13.13.34,0,.47-.06.06-.14.1-.23.1ZM7.89,9.67h.48c.27,0,.48-.22.48-.48s-.22-.48-.48-.48h-.48v.97Z"/>
  <path class="st0" d="M10.81,11.96c-.18,0-.33-.15-.33-.33v-3.25c0-.18.15-.33.33-.33h1.63c.18,0,.33.15.33.33s-.15.33-.33.33h-1.3v2.59h1.3c.18,0,.33.15.33.33s-.15.33-.33.33h-1.63Z"/>
  <path class="st0" d="M10.81,10.33c-.18,0-.33-.15-.33-.33s.15-.33.33-.33h.81c.18,0,.33.15.33.33s-.15.33-.33.33h-.81Z"/>
  <path class="st0" d="M14.07,11.96c-.18,0-.33-.15-.33-.33v-3.25c0-.18.15-.33.33-.33h1.63c.18,0,.33.15.33.33s-.15.33-.33.33h-1.3v2.59h1.3c.18,0,.33.15.33.33s-.15.33-.33.33h-1.63Z"/>
  <path class="st0" d="M14.07,10.33c-.18,0-.33-.15-.33-.33s.15-.33.33-.33h.81c.18,0,.33.15.33.33s-.15.33-.33.33h-.81Z"/>
</svg>
